X:1
T:When the Son of Man shall come - Kent
T:#
%%score [ 1 2 3 ] ( 4 5 6 )
L:1/8
Q:1/4=108
M:4/4
K:C
V:1 treble nm="Alto" snm="A"
V:2 treble nm="Tenor" snm="T"
V:3 bass nm="Bass" snm="B"
V:4 treble nm="Midi_20"
V:5 treble 
V:6 treble 
V:1
 z8 | z8 | z8 | z8 | z8 | z8 |[M:4/4] z8 | z8 | z8 | z8 | z8 | z8 |[M:4/4] z8 | z8 | z8 | z8 | z8 | %17
w: |||||||||||||||||
 z8 |[M:4/4] z8 | z8 | z8 | z8 | z8 | z8 | z8 ||[K:Eb][M:3/4][K:treble] z6 | z6 | z6 | G2 C2 D2 | %29
w: |||||||||||Then shall he|
 E3 D EF | G3 F (ED) | (ED) C2 z2 | z6 | z6 | z2 G2 D2 | E3 D EF | D4 E2 | F3 G A2 | G2 E2 G2 | %39
w: sit u- pon the|throne of his *|glo\- * ry,|||He shall|sit u- pon the|throne, the|throne of his|glo- ry, shall|
 (G2 F)F EE |{E} D4 E2 | F2 E2 D2 | E2 E2 G2 | (G2 F)F EE |{E} D4 E2 | F2 E2 D2 | E2 E2 z2 | z6 | %48
w: sit * u- pon the|* the|throne of his|glo- ry, shall|sit * u- pon the|* the|throne of his|glo- ry.||
 z6 | z6[Q:1/4=106] |[Q:1/4=104] z6[Q:1/4=102][Q:1/4=100] |[Q:1/4=98] z6[Q:1/4=96][Q:1/4=94] | %52
w: ||||
[Q:1/4=94] z6 ||[M:3/4][Q:1/4=94][Q:1/4=94][Q:1/4=94][Q:1/4=94] z8 | z6 | z6 | z6 | z6 | %58
w: ||||||
[M:4/4] z8 | z8 | z8 | z8 | z8 | z8 | %64
w: ||||||
[M:3/4][Q:1/4=120]"^Lively"[Q:1/4=120][Q:1/4=120][Q:1/4=120] G2 C2 D2 | E3 D EF | G3 F (ED) | %67
w: Then shall he|sit u- pon the|throne of his *|
 (ED) C2 D2 | E3 E EE | (E2 D2) z2 | z6 | z2 z2 D2 | G3 G GG | (G2 F2) z2 | z6 | z2 z2 G2 | %76
w: glo\- * ry, shall|sit u- pon the|throne, *||shall|sit u- pon the|throne, *||shall|
 E3 E AG | (G2 F2) G2 | A2 (GF) (ED) | E2 E2 z2 | z6 | z6 | z2 E2 G2 | G2 F2 F2 | G3 F ED | C4 D2 | %86
w: sit u- pon the|throne, * the|throne of * his *|glo- ry,|||of his|glo- ry, shall|sit u- pon the|throne, the|
 B,3 B, C2 | B,2 =A,2 D2 | E2 (DC) (B,=A,) | (B,=A,) G,2 z2 | z2 D2 G2 | (G2 ^F)F G=A | D2 G2 D2 | %93
w: throne of his|glo- ry, the|throne of * his *|glo\- * ry,|he shall|sit * u- pon the|throne, he shall|
 E3 D EE | (E2 D2) E2 | F3 G A2 | G2 E2 G2 | (G2 F)F FF | F4 E2 | F2 E2 D2 | (ED) C2 G2 | %101
w: sit u- pon the|throne, * the|throne of his|glo- ry, shall|sit * u- pon the|throne, the|throne of his|glo\- * ry, shall|
 (G2 F)F FF | F4 E2 | F2 E2 D2 | (ED) C2 G2 | F2 E2[Q:1/4=118] D2 | %106
w: sit * u- pon the|throne, the|throne of his|glo\- * ry, the|throne of his|
[Q:1/4=116] (E[Q:1/4=114]D)[Q:1/4=112] C2[Q:1/4=109] z2 |[Q:1/4=103] z6 |[Q:1/4=100] z6 || %109
w: glo\- * ry.|||
[M:4/4][Q:1/4=80][Q:1/4=80][Q:1/4=80][Q:1/4=80] z8 | z8 | z8 | z8 |[M:4/4] z8 | z8 || z8 | z8 | %117
w: ||||||||
 z8 |[M:2/2] z8 | z8 | z8 | z8 | z8 |[M:2/2] z8 | z8 | z8 | z8 |[M:2/2] z8 | z8 | z8 | z8 | z8 | %132
w: |||||||||||||||
[M:2/2] z8 | z8 | z8 | z8 |[M:2/2] z8 | z8 | z8 | z8 |[M:2/2] z8 | z8 | z8 | z8 |[M:2/2] z8 | z8 | %146
w: ||||||||||||||
 z8 | z8 |[M:2/2] z8 |[M:4/4]"^Slow" C4 E4 | z2 G2 GEEE | D2 DD E2 E2 | z2 E2 F2 F2 | %153
w: |||Lord, Lord,|when saw we thee an|hun- gry and fed thee,|or thir- sty|
[M:4/4] z FFF G2 z2 | z2 G2 GFFE | E2 D2 z DEF | E2 z2 E E2 (D/C/) | (B,2 T=A,>)G, G,4 | %158
w: and gave thee drink,|when saw we thee a|stran- ger and took thee|in, na- ked and *|clo\- * thed thee,|
 z2 GG (GF)FG | A2 GF FE z G | G2 F2 G2 G2 ||[K:C] x8 | %162
w: or when saw * we thee|sick, or in pri- son, and|came un- to thee?||
[M:4/4][Q:1/4=76][Q:1/4=76][Q:1/4=76][Q:1/4=76] z8 | z8 | z8 |[M:4/4] z8 | %166
w: ||||
 z8[Q:1/4=40][Q:1/4=100] | z6 z2 | z8 | z8 | %170
w: ||||
[M:3/4][Q:1/4=100][Q:1/4=100][Q:1/4=100][Q:1/4=100] z6 | z6 | z6 | z6 | z6 | z6 | z6 | z6 | z6 | %179
w: |||||||||
[M:3/2][Q:1/4=192]"^Not too fast"[Q:1/4=192][Q:1/4=192][Q:1/4=192] C8 C4 | (C4 B,4) C4 | %181
w: Hal- le-|lu\- * jah,|
 (D2 E2 F4) E4 | E8 D4 | (D2 E2 D2 E2) F4 | F8 E4 | (E2 F2 E2 F2) G4 | G8 F4 | %187
w: Hal\- * * le-|lu- jah,|Hal\- * * * le-|lu- jah,|Hal\- * * * le-|lu- jah|
[M:3/2] (A2 G2 A4) G4 | (F2 E2 F4) E4 | (E4 D4) C4 | C4 B,4 z4 | E8 D4 | (C2 B,2 C2 D2) C4 | %193
w: Hal\- * * le-|lu\- * * jah,|Hal\- * le-|lu- jah,|Hal- le-|lu\- * * * jah,|
 F8 E4 | (D2 C2 D2 E2) D4 | G8 F4 | (F4 E4) D4 | (G4 F4) E4 | (F6 G2) F4 | F8 E4 | (E4 D4) C4 | %201
w: Hal- le-|lu\- * * * jah,|Hal- le-|lu\- * jah,|Hal\- * le-|lu\- * jah,|Hal- le|lu\- * jah,|
 (G4 F4) E4 | E4 D4 z4 | z4 G4 A4 | (G4 F4) E4 | z4 G4 A4 | (G4 F4) E4 | G8 G4 | G8 G4 | G8 G4 | %210
w: Hal\- * le-|lu- jah,|Hal- le-|lu\- * jah,|Hal- le-|lu\- * jah,|Hal- le-|lu jah,|Hal- le-|
 G8 G4 | z4 E4 F4 | (E4 D4) C4 | z4 E4 F4 | (E4 D4) C4 | C8 C4 | F8 E4 | (D2 E2 F4) E4 | E8 D4 | %219
w: lu jah,|Hal- le-|lu\- * jah,|Hal- le-|lu\- * jah,|Hal- le-|lu- jah,|Hal\- * * le-|lu- jah,|
 (D2 C2 D2 E2) F4 | (E4 F4) G4 | A4 (D6 EF) | (E4 F4) G4 | A4 (D6 EF) | E4 C4 z4 | [FA]12 | %226
w: Hal\- * * * le-|lu\- * jah,|Hal- le\- * *|lu\- * jah,|Hal- le\- * *|lu- jah,|Hal-|
 [Gc]12 | [FA]12 | [EG]12 |] %229
w: le-|lu-|jah.|
V:2
 z8 | z8 | z8 | z8 | z8 | z8 |[M:4/4] z8 | z8 | z8 | z8 | z8 | z8 |[M:4/4] z8 | z8 | z8 | z8 | z8 | %17
w: |||||||||||||||||
 z8 |[M:4/4] z8 | z8 | z8 | z8 | z8 | z8 | z8 ||[K:Eb][M:3/4][K:treble-8] z6 | z6 | z6 | z6 | z6 | %30
w: |||||||||||||
 z6 | c2 G2 =A2 | B3 =A Bc | d3 c (B=A) | (B=A) G2 =B2 | c3 =B cd | =B4 c2 | d2 e2 f2 | e2 B2 e2 | %39
w: |Then shall he|sit u- pon the|throne of his *|glo\- * ry, shall|sit u- pon the|throne, the|throne of his|glo- ry, shall|
 c3 c BB | A4 G2 | A2 G2 F2 | G2 G2 e2 | c3 c BB | A4 G2 | A2 G2 F2 | G2 G2 z2 | z6 | z6 | z6 | %50
w: sit u- pon the|throne, the|throne of his|glo- ry, shall|sit u- pon the|throne, the|throne of his|glo- ry.||||
 z6 | z6 | z6 ||[M:3/4] z8 | z6 | z6 | z6 | z6 |[M:4/4] z8 | z8 | z8 | z8 | z8 | z8 | %64
w: ||||||||||||||
[M:3/4][K:treble-8] e2 c2 =B2 | c3 =B cd | e3 d (c=B) | c2 G2 =B2 | c3 c cc | (c2 =B2) z2 | z6 | %71
w: Then shall he|sit u- pon the|throne of his *|glo- ry, shall|sit u- pon the|throne, *||
 z2 z2 _B2 | e3 e ee | (e2 d2) z2 | z6 | z2 z2 e2 | c3 c fe | (e2 d2) e2 | c2 (BA) (GF) | %79
w: shall|sit u- pon the|throne, *||shall|sit u- pon the|throne, * the|throne of * his *|
 G2 G2 z2 | z2 B2 e2 | (e2 d)d ef | B2 B2 e2 | e2 d2 d2 | e3 d cB | =A4 B2 | G3 G =A2 | G2 ^F2 z2 | %88
w: glo- ry,|He shall|sit * u- pon the|throne if his|glo- ry, shall|sit u- pon the|throne, the|throne of his|glo- ry,|
 z6 | d2 G2 =A2 | B3 =A Bc | d3 c (B=A) | (B=A) G2 =B2 | c3 =B cc | (c2 =B2) c2 | d3 e f2 | %96
w: |Then shall he|sit u- pon the|throne of his *|glo\- * ry, shall|sit u- pon the|throne, * the|throne of his|
 e2 B2 e2 | c3 c dc | =B4 c2 | d2 c2 =B2 | c2 G2 e2 | c3 c dc | =B4 c2 | d2 c2 =B2 | c2 G2 e2 | %105
w: glo- ry, shall|sit u- pon the|throne, the|throne of his|glo- ry, shall|sit u- pon the|throne, the|throne of his|glo- ry, the|
 d2 c2 =B2 | c2 c2 z2 | z6 | z6 ||[M:4/4] z8 | z8 | z8 | z8 |[M:4/4] z8 | z8 || z8 | z8 | z8 | %118
w: throne of his|glo- ry.||||||||||||
[M:2/2] z8 | z8 | z8 | z8 | z8 |[M:2/2] z8 | z8 | z8 | z8 |[M:2/2] z8 | z8 | z8 | z8 | z8 | %132
w: ||||||||||||||
[M:2/2] z8 | z8 | z8 | z8 |[M:2/2] z8 | z8 | z8 | z8 |[M:2/2] z8 | z8 | z8 | z8 |[M:2/2] z8 | z8 | %146
w: ||||||||||||||
 z8 | z8 |[M:2/2][K:treble-8] z8 |[M:4/4] z4 c4 | z2 e2 eccc | c2 =BB c2 c2 | z2 c2 d2 d2 | %153
w: |||Lord,|when saw we thee an|hun- gry and fed thee,|or thir- sty|
[M:4/4][K:treble-8] z ddd e2 z2 | z2 e2 eddc | c2 =B2 z Bcd | c2 z2 c c2 (_B/=A/) | (G2 ^F>)G G4 | %158
w: and gave thee drink,|when saw we thee a|stran- ger and took thee|in, na- ked and *|clo\- * thed thee,|
 z2 ee (ed)de | f2 ed dc z e | c3 c =B2 B2 ||[K:C] x8 |[M:4/4] z8 | z8 | z8 |[M:4/4] z8 | z8 | %167
w: or when saw * we thee|sick, or in pri- son, and|came un- to thee?|||||||
 z6 z2 | z8 | z8 |[M:3/4] z6 | z6 | z6 | z6 | z6 | z6 | z6 | z6 | z6 |[M:3/2][K:treble-8] E8 A4 | %180
w: ||||||||||||Hal- le-|
 (G4 F4) E4 | G8 c4 | c8 B4 | (B2 c2 B2 c2) d4 | d8 c4 | (G2 A2 G2 A2) _B4 | _B8 A4 | %187
w: lu\- * jah,|Hal- le-|lu- jah,|Hal\- * * * le-|lu- jah,|Hal\- * * * le-|lu- jah|
[M:3/2][K:treble-8] c8 c4 | (c4 B4) c4 | (c4 B4) A4 | A4 G4 z4 | c8 B4 | (A2 G2 A2 B2) A4 | d8 c4 | %194
w: Hal- le-|lu\- * jah,|Hal\- * le-|lu- jah,|Hal- le-|lu\- * * * jah,|Hal- le-|
 (B2 A2 B2 c2) B4 | e8 d4 | (d4 ^c4) d4 | (e4 d4) ^c4 | (d6 e2) d4 | d8 =c4 | (c4 B4) c4 | %201
w: lu\- * * * jah,|Hal- le-|lu\- * jah,|Hal\- * le-|lu\- * jah,|Hal- le|lu\- * jah,|
 (c4 B4) c4 | c4 B4 x4 | c8 c4 | c8 c4 | c8 c4 | c8 c4 | z4 d4 e4 | (d4 c4) B4 | z4 d4 e4 | %210
w: Hal\- * le-|lu- jah,|Hal- le-|lu- jah,|Hal- le-|lu- jah,|Hal- le-|lu\- * jah,|Hal- le-|
 (d4 c4) B4 | z4 G4 A4 | (G4 F4) E4 | z4 G4 A4 | (G4 F4) E4 | A8 G4 | (A4 B4) c4 | G8 c4 | c8 B4 | %219
w: lu\- * jah,|Hal- le-|lu\- * jah,|Hal- le-|lu\- * jah,|Hal- le-|lu\- * jah,|Hal- le-|lu- jah,|
 (B2 A2 B2 c2) d4 | c8 c4 | c8 B4 | c8 c4 | c8 B4 | c4 G4 z4 | c12 | c12 | c12 | c12 |] %229
w: Hal\- * * * le-|lu- jah,|Hal- le-|lu- jah,|Hal- le-|lu- jah,|Hal-|le-|lu-|jah.|
V:3
[K:Eb]"^When the Son of Man shall come""^James Kent\n(1700-1776)""^Matthew 25:31-32a;34-39;40b;46b" z8 | %1
w: |
 z8 | z8 | z8 | z8 | z8 |[M:4/4] z8 | z8 | z8 | C,3 D, E,2 F,2 | G,3 G, C2 z2 | z2 G,2 A,4 | %12
w: ||||||||When the Son of|Man shall come,|shall come|
 G,3 F, (E,>D,) C,2 | z8 | z8 | E,3 F, G,2 A,2 | B,3 B, C4 | B,3 A, (G,>F,) E,2 | z8 | z4 z2 F,2 | %20
w: in his glo\- * ry,|||When the Son of|Man shall come|in his glo\- * ry,||and|
 B,2 F,2 G,2 A,2 | G,4 G,4 | C2 G,2 C,2 D,2 | E,4 F,4 | G,2 G,2 z4 ||[M:3/4] G,2 C,2 D,2 | %26
w: all the ho- ly|an- gels,|all the ho- ly|an- gels|with him:|Then shall he|
 E,3 D, E,F, | G,3 F, (E,D,) | (E,D,) C,2 z2 | z6 | z6 | z6 | z6 | z6 | z2 G,2 G,2 | C3 G, E,C, | %36
w: sit u- pon the|throne of his *|glo\- * ry,||||||He shall|sit u- pon the|
 G,4 C2 | B,3 B, B,2 | E2 E,2 E,2 | A,3 A, G,G, | F,4 E,2 | C2 B,2 B,,2 | E,2 E,2 E,2 | %43
w: throne, the|throne of his|glo- ry, shall|sit u- pon the|throne, the|throne of his|glo- ry, shall|
 A,3 A, G,G, | F,4 E,2 | C2 B,2 B,,2 | E,2 E,2 z2 | z6 | z6 | z6 | z6 | z6 | z6 || %53
w: sit u- pon the|throne, the|throne of his|glo- ry.|||||||
[M:4/4]"^Slow" E,3 F, G,2 A,2 | B,3 B, E2 z2 | z2 B,2 C4 | B,3 A, (G,>F,) E,2 | z8 | %58
w: When the Son of|Man shall come,|shall come|in his glo\- * ry,||
[M:4/4] z4 z2 F,2 | B,2 A,2 G,2 F,2 | G,4 G,4 | C2 B,2 A,2 G,2 | G,4 F,4 | G,2 G,2 z4 | %64
w: and|all the ho- ly|an- gels,|all the ho- ly|an- gels|with him:|
[M:3/4] C,2 E,2 G,2 | C3 G, G,F, | E,2 F,2 G,2 | C2 C,2 z2 | z6 | z2 z2 G,2 | C2 (C,D,) (E,F,) | %71
w: Then shall he|sit u- pon the|throne of his|glo- ry,||the|throne of * his *|
 G,2 G,2 z2 | z6 | z2 z2 B,2 | E2 (E,F,) (G,A,) | B,2 B,,2 z2 | z6 | z6 | z6 | B,2 E,2 F,2 | %80
w: glo- ry,||the|throne of * his *|glo- ry,||||Then shall he|
 G,3 F, G,A, | B,3 A, (G,F,) | (G,F,) E,2 z2 | z6 | z6 | z6 | z6 | z2 z2 B,,2 | C,2 D,2 D,2 | %89
w: sit u- pon the|throne of his *|glo\- * ry,|||||the|throne of his|
 G,2 G,2 z2 | z6 | z6 | z2 G,2 G,2 | C3 G, E,C, | G,4 C2 | B,3 B, B,2 | E2 E,2 E,2 | A,3 A, F,F, | %98
w: glo- ry,|||He shall|sit u- pon the|throne, the|throne of his|glo- ry, shall|sit u- pon the|
 G,4 C,2 | F,2 G,2 G,2 | C2 C,2 C2 | A,3 A, F,F, | G,4 C,2 | F,2 G,2 G,2 | C2 C,2 C,2 | %105
w: throne, the|throne of his|glo- ry, shall|sit u- pon the|throne, the|throne of his|glo- ry, the|
 F,2 G,2 G,2 | C2 C,2 z2 | z6 | z6 ||[M:4/4] z2 C,2 F,F,F,G, | A,>A, A,B, C2 C2 | %111
w: throne of his|glo- ry.|||Be- fore him shall be|ga- ther- ed the na- tions,|
 z C,C,C, F,>F, F,F, | B,2 F,G, F,2 =E,2 | z2 G,G, A,3 G, | F,2 C,D, E,2 D,2 || %115
w: and he shall se- pa- rate them|one from a- no- ther:|he shall say to|them on his right hand|
[K:C][M:2/2] C,4 z4 | E,4 z4 | G,6 (A,B,) |[M:2/2] C4 C4 | G,3 F, E,2 C,2 | z2 C,2 E,2 E,G, | %121
w: Come,|come,|come ye *|bles- sed|of my Fa- ther;|in- he- rit the|
 E,2 C,G, C3 E | C4 z2 G,A,/B,/ | (CB,/A,/ G,/F,/E,/D,/ C,B,,/A,,/ G,,/F,,/) (E,,/F,,/) | %124
w: king- dom pre- par'd for|you from the foun-|da\- * * * * * * * * * * * tion *|
 G,,3 G,, C,4 | z2 G,2 z2 B,G, | ^F,D,G,C, D,4 | G,,4 z2 G,2 | G,2 =F,G, E,2 C,2 | z2 G,2 C2 _B,C | %130
w: if the world;|come, come ye|bles- sed of my Fa-|ther, in-|he- rit the king- dom,|in he- rit the|
 A,2 F,F, A,3 C | F,4 z2 F,G,/A,/ | (_B,A,/G,/ F,/_E,/D,/C,/ _B,,2) B,,2 | %133
w: king- dom pre- par'd for|you from the foun-|da\- * * * * * * * tion,|
 z2 G,A,/_B,/ (CB,/A,/ G,/F,/E,/D,/ | C,2) C,2 C,2 C,2 | F,4 z F,F,A, | %136
w: from the foun- da\- * * * * * *|* tion of the|world, for I was|
 F,2 F,2 z F,/F,/F, (E,/D,/) | C,4 z2 E,G, | _B,2 B,2 z B,/D<B,A,/ | A,2 z2 z F,F,G, | %140
w: hun- gry, and ye gave me *|meat, I was|thir- sty, and ye gave me|drink, I was a|
 _A,2 A,2 z A,/A,/A,F, | =B,2 z2 D2 B,2 | z2 B,G, C3 C | C4 z2 CA, | ^F,2 A,C _B,/B,/B, B,2 | %145
w: stran- ger, and ye took me|in, na- ked,|and ye clo- thed|me, I was|sick, and ye vi- si- ted me,|
 z =B,B,B, CCC_A, | G,3 F, _E,2 E,2 | z CC_B, _A,_E,F,A, | G,3 G, C,2 C,2 |[K:Eb][M:4/4] z8 | z8 | %151
w: I was in pri- son, and ye|came un- to me,|I was in pri- son and ye|came un- to me.|||
 z8 | z8 |[M:4/4] z8 | z8 | z8 | z8 |[M:4/4] z8 | z8 | z8 | z8 || z8 | %162
w: |||||||||||
[M:4/4]"^Recitative" D,>D, D,D, G,2 G,D, | =E,2 C,>C, C,>C, C,>D, | =E,E,E,F, G,2 G,G, | %165
w: Ve- ri- ly I say un- to|you: in as much as ye have|done it un- to one of the|
 CG,=E,C, F,F,F,F, | B,B,B,C !fermata!=A,2 F,2 |[M:3/4]"^Slow" =A,2 G,2 F,2 | =E,2 D,2 C,2 z2 | %169
w: least of these my breth- ren, ye have|done it un- to me. The|right- eous shall|go in- to|
 (F,3 G,) =A,2 z2 |[M:3/4] =A,2 G,2 G,2 | =A,2 G,2 F,2 | =B,4 C2 | (D,3 =E,) F,2 | F,2 =E,2 G,2 | %175
w: life * e-|ter- nal, shall|go in- to|life, to|life * e-|ter- nal, shall|
 C2 =B,2 =A,2 | G,4 =A,2 | (D,3 =E,) F,2 | =E,2 C,2 z2 |[M:3/2] C,8 F,4 | (=E,4 D,4) C,4 | %181
w: go in- to|life, to|life * e-|ter- nal.|Hal- le-|lu\- * jah,|
 =B,,8 C,4 | G,8 G,4 | G,8 G,4 | C8 C4 | C,8 C,4 | F,8 F,4 |[M:3/2] (F,2 =E,2 F,4) E,4 | %188
w: Hal- le-|lu- jah,|Hal- le-|lu- jah,|Hal- le-|lu- jah,|Hal\- * * le-|
 (D,2 C,2 D,4) C,4 | F,8 ^F,4 | G,4 G,4 z4 | (C,4 D,4) =E,4 | F,8 F,4 | (D,4 =E,4) F,4 | G,8 G,4 | %195
w: lu\- * * jah,|Hal- le-|lu- jah,|Hal\- * le-|lu- jah,|Hal\- * le-|lu- jah,|
 (=E,4 F,4) G,4 | =A,8 B,4 | G,4 =A,8 | D,8 D,4 | (D,4 =E,4) F,4 | G,8 =A,4 | (=E,4 D,4) C,4 | %202
w: Hal\- * le-|lu- jah,|Hal- le-|lu- jah,|Hal\- * le-|lu- jah,|Hal\- * le-|
 G,4 G,4 z4 | z4 =E,4 F,4 | (=E,4 D,4) C,4 | z4 =E,4 F,4 | (=E,4 D,4) C,4 | z4 =B,4 C4 | %208
w: lu- jah,|Hal- le-|lu\- * jah,|Hal- le-|lu\- * jah,|Hal- le-|
 (=B,4 =A,4) G,4 | z4 =B,4 C4 | (=B,4 =A,4) G,4 | C8 C4 | C8 C4 | C8 C4 | C8 C4 | F,8 =E,4 | %216
w: lu\- * jah,|Hal- le-|lu\- * jah,|Hal- le-|lu- jah,|Hal- le-|lu- jah,|Hal- le-|
 D,8 C,4 | =B,,8 C,4 | G,8 G,4 | G,8 =B,,4 | (C,4 D,4) =E,4 | F,4 G,8 | (C,4 D,4) =E,4 | F,4 G,8 | %224
w: lu- jah,|Hal- le-|lu- jah,|Hal- le-|lu\- * jah,|Hal- le-|lu\- * jah,|Hal- le-|
 C4 C,4 z4 | F,12 | =E,12 | F,12 | C,12 |] %229
w: lu- jah,|Hal-|le-|lu-|jah.|
V:4
[K:Eb] c2 G>F E2 D>C | G2 G,2 G,2 z/ B/c/d/ | e2 B>A G2 F>E | B2 B,2 B,2 z/ B/A/G/ | %4
 A>B c2 D2 z/ A/G/F/ | G>A B2 C2 z/ G/F/=E/ |[M:4/4] F>G A2 =B,[FA] [EG][DF] | %7
 [CE][CE] [CE][CE] [=B,D]2 [CE]2- | [CD]2 [=B,D]2 C4 | z8 | z8 | z8 | z8 | c2 G>F E2 D>C | %14
 G2 z2 z4 | z8 | z8 | z8 | e2 B>A G2 F>E | B2 B,2 B,2 z2 | z8 | z8 | z8 | z8 | z8 || %25
[M:3/4][K:bass] x6 | x6 | x6 | x6 | x6 | x6 | x6 | x6 | x6 | x6 | x6 | x6 | x6 | x6 | x6 | x6 | %41
 x6 | x6 |[M:3/4][K:treble] z6 | z6 | z6 | z4 b2 | g2 ff ee | e2 d2 e2 | f2 e2 d2 | e2 B2 B2 | %51
 A2 G2 F2 | E6 ||[M:4/4] z8 | z8 | z8 | z8 | e2 B>A G2 F>E |[M:4/4] B2 B,2 B,2 z2 | z8 | z8 | z8 | %62
 z8 | z8 |[M:3/4][K:bass] x6 | x6 | x6 | x6 | x6 | x6 | x6 | x6 | x6 | x6 | x6 | x6 | x6 | x6 | %78
 x6 | x6 | x6 | x6 | x6 | x6 | x6 | x6 | x6 | x6 | x6 | x6 | x6 | x6 | x6 | x6 | x6 | x6 | x6 | %97
 x6 | x6 | x6 | x6 | x6 | x6 |[M:3/4][K:treble] z6 | z6 | z6 | z2 z2 [EG]2 | [DF]2 [CE]2 [=B,D]2 | %108
 C6 ||[M:4/4][K:bass] x8 | x8 | x8 | x8 |[M:4/4][K:treble] z8 | z8 || %115
[K:C][M:2/2]"^Soft organ" [CE][DF][EG][DF] [CE][DF][EG][DF] | [CE][DF][EG][DF] [CE][EG][Ec][Gd] | %117
 [ce][df][eg][df] [ce][eg][Af][Gg] |[M:2/2] [ce][Ge][Fd][Ec] z [Ge][Fd][Ec] | %119
 z [ce][ce][df] [eg][ce][ce][df] | [eg][fa][eg][ce] z [ce][ce][Bd] | %121
 [ce][ce][eg][Bd] [ce][eg][eg][ce] | z [ce][ce][Gd] [Ec]2 GA/B/ | %123
 cB/A/ G/F/E/D/ C[K:bass] B,/A,/ G,/F,/E,/F,/ | G,2 G,2 C,[K:treble] [Ec][Ec][ce] | %125
 [Bd][Ac][GB][Ac] [Bd]2 z2 | z2 [GB]-[Gc] [GB]2 [^FA]2 | G[Bd][Bd][ce] [df][eg][df][ce] | %128
 [Bd][ce][df][Bd] [ce][df][eg][df] | [ce][df][eg][fa] [eg][fa][g_b][eg] | %130
 [fa][fa][ac'][g_b] [fa][Ac][Af][Ge] | [Af][_Bg][ca][Bg] [Af]2 FG/A/ | %132
 _BA/G/ F/_E/D/C/ _B, [g_b][gb][fa] | [eg]2 GA/_B/ cB/A/ G/F/E/D/ | %134
 C[Ec][Ec][Gd] [ce][Af][_Bg][Ge] | [Af][Ac][Ac][G_B] [FA]2 z2 | z [FA][FA][Ac] [FA]2 z2 | %137
 z [ce][ce][eg] [ce]2 z2 | z [eg][eg][g_b] [eg]2 z2 | z [fa][fa][ac'] [fa]2 z2 | %140
 z [_Af][Af][c_a] [Af]2 z2 | z [=Bd][Bd][df] [Bd]2 z2 | [df]2 [Bd]2 z [c_e][eg][ce] | %143
 [_ec'][cg][ce][Gd] [_Ec]2 z2 | z [ca][A^f][Af] [_Bg][GB][Bd][GB] | %145
 [=Bd][df][f_a][df] [_eg]3 [df] | [c_e]2 [Bd]2 c[ce][eg][df] | [c_e]2 z2 z2 [C-_A][CF] | %148
 [C_E]2 [B,D]2 C4 |[K:Eb][M:4/4] z8 | z8 | z8 | z8 |[M:4/4][K:bass] x8 | x8 | x8 | x8 | x8 | x8 | %159
 x8 | x8 ||[K:C] x8 | x8 | x8 | x8 | x8 | x8 |[M:3/4] x6 | x8 | x8 |[M:3/4] x6 | x6 | x6 | x6 | %174
 x6 | x6 | x6 | x6 | x6 |[M:3/2] x12 | x12 | x12 | x12 | x12 | x12 | x12 | x12 |[M:3/2] x12 | x12 | %189
 x12 | x12 | x12 | x12 | x12 | x12 | x12 | x12 | x12 | x12 | x12 | x12 | x12 | x12 | x12 | x12 | %205
 x12 | x12 | x12 | x12 | x12 | x12 | x12 | x12 | x12 | x12 | x12 | x12 | x12 | x12 | x12 | x12 | %221
 x12 | x12 | x12 | x12 | x12 | x12 | x12 | x12 |] %229
V:5
[K:Eb][I:staff +1] C2 G,>F, E,2 D,>C, | G,2 G,,2 G,,2[I:staff -1] z/[I:staff +1] B,/C/D/ | %2
w: ||
w: ||
w: ||
 E2 B,>A, G,2 F,>E, | B,2 B,,2 B,,2[I:staff -1] z/[I:staff +1] B,/A,/G,/ | %4
w: ||
w: ||
w: ||
 A,>B, C2 D,2[I:staff -1] z/[I:staff +1] A,/G,/F,/ | %5
w: |
w: |
w: |
 G,>A, B,2 C,2[I:staff -1] z/[I:staff +1] G,/F,/=E,/ |[M:4/4] F,>G, A,2 =B,,3 G,, | %7
w: ||
w: ||
w: ||
 C,^F,, F,,F,, G,,2 C,2 | G,,4 C,,4 | C,8 | B,,4 A,,4 | E,,4 F,,4 | G,,4 C,,4 | %13
w: |||6 *|6 *|~~~~~6~~~~5 *|
w: |||||~~~~~4~~~~3 *|
w: ||||||
 C2 G,>F, E,2 D,>C, | G,2 [G,,G,]2 [G,,G,]2[I:staff -1] z2 | z2[I:staff +1] E,4 F,2 | %16
w: ||* 6|
w: |||
w: |||
 G,2 E,2 A,2 F,2 | B,2 B,,2 E,4 | E2 B,>A, G,2 F,>E, | B,2 B,,2 B,,2[I:staff -1] z2 | %20
w: 6 * * *|6 5 *|||
w: |4 3 *|||
w: ||||
 z4 z2[I:staff +1] B,,2 | E,2 E,2 E,2 D,2 | C,6 B,,2 | A,,8 | G,,4[I:staff -1] z4 || %25
w: 7||* 6|~~~~~~~7~~~~~6|~~~~~~6~~~~~5|
w: ||||~~~~~~4~~~~~3|
w: |||||
[M:3/4][K:bass] G,2 C,2 D,2 | E,3 D, E,F, | G,3 F, E,D, | E,D, C,2 G,2 | C2 C,2 z2 | z2 G,2 G,,2 | %31
w: ||||||
w: ||||||
w: ||||||
 C,4 C,2 | B,,2 G,,2 G,2 | ^F,2 D,2 F,2 | G,4 G,2 | C3 G, E,C, | G,4 C2 | B,2 B,,2 B,,2 | E,4 E,2 | %39
w: * 6||6 * *||* 3 6 *|* ~~~3~~~6|* * 7||
w: ||||||||
w: ||||||||
 A,4 G,2 | F,4 E,2 | A,,2 B,,4 | E,,4 E,2 |[M:3/4][K:treble][I:staff +1] A,4 G,2 | F,4 E,2 | %45
w: ~~~~7~~~~6 6|~~~~7~~~~6 *|6 ~~~~~6~~~~5||~~~~7~~~~6 6||
w: ||* ~~~~~4~~~~3||||
w: ||||||
 A,,2 B,,4 | E,,4 E,2 | A,4 G,2 | F,4 E,2 | A,2 B,2 B,,2 | E,4 E,2 | A,,2 B,,4 | E,,6 || %53
w: ||||||||
w: ||||||||
w: ||||||||
[M:4/4] E,8 | D,4 C,4 | G,,4 A,,4 | B,,4 E,,4 | E2 B,>A, G,2 F,>E, | %58
w: |6 *|6 *|~~~~~~~6~~~~~5 *||
w: |||~~~~~~~4~~~~~3 *||
w: |||||
[M:4/4] B,2 B,,2 B,,2[I:staff -1] z2 | z4 z2[I:staff +1] B,,2 | E,2 D,2 C,2 B,,2 | %61
w: |||
w: |||
w: |||
 A,,2 G,,2 F,,2 E,,2 | A,,8 | E,,4[I:staff -1] z4 |[M:3/4][K:bass] C,2 E,2 G,2 | C3 G, G,F, | %66
w: * 6 6 *|~~~~~~~7~~~~~6|~~~~~~~~6~~~~~5|* 6 *|* 3 6 6|
w: ||~~~~~~~~4~~~~~3||* * 4 4|
w: |||||
 E,2 F,2 G,2 | C,4 G,2 | C2 E,2 C,2 | G,,4 G,2 | C2 C,D, E,F, | G,2 G,,2 z2 | E,2 G,2 E,2 | %73
w: 6 * *||* 6 *|~~~~~~~6~~~~~5 *||6 5|* 6 *|
w: |||~~~~~~~4~~~~~3 *||4 *||
w: |||||||
 B,,4 B,2 | E2 E,F, G,A, | B,2 B,,2 G,2 | A,4 F,2 | B,4 E,2 | A,,2 B,,4 | E,4 F,2 | G,3 F, G,A, | %81
w: ~~~~~6~~~~5 *||* * 6||~~~~~6~~~~~5 *|* ~~~~~~6~~~~~5||6 * * *|
w: ~~~~~4~~~~3 *||||~~~~~4~~~~~3 *|* ~~~~~~4~~~~~3|||
w: ||||||||
 B,3 A, G,F, | G,F, E,2 E,,2 | B,,4 B,,2 | E,4 E,2 | F,4 D,2 | E,4 C,2 | D,4 B,,2 | C,2 D,2 D,,2 | %89
w: ~~~6~~~~5 * 6 *|6 * * *|~~~~~~6~~~~5 *||* 6|* 6|~~~~~~6~~~~~5 6|* 6 *|
w: ~~~4~~~~3 * * *||~~~~~~4~~~~3 *||||~~~~~~4~~~~~3 *|* 4 5|
w: |||||||* * 3|
 G,,2 G,2 =A,2 | B,3 =A, B,C | D3 C B,=A, | B,=A, G,2 G,2 | C3 G, E,C, | G,4 C2 | B,4 B,2 | %96
w: * * +6|6 * * *|~~~6~~~5 * * *|6 * * *|* * 6 *|~~~6~~~~5 ~5~~6|* 7|
w: ||~~~4~~~3 * * *|||~~~4~~~~3 *||
w: |||||||
 E2 E,2 E,2 | A,4 F,2 | G,4 C,2 | F,2 G,2 G,,2 | C,4 C2 | A,4 F,2 | G,4 C,2 | %103
w: |~~~7~~~~6 ~~~6~~~~5|7 *|6 6 5||||
w: ||3 *|* 4 3||||
w: |||||||
[M:3/4][K:treble][I:staff +1] F,2 G,2 G,,2 | C,4 C,2 | F,2 G,2 G,,2 | C,4 C,2 | F,2 G,2 G,,2 | %108
w: |||||
w: |||||
w: |||||
 C,6 ||[M:4/4][I:staff -1][K:bass] F,,8- | F,,4 E,,4- | E,,4 _D,,4- | D,,4 C,,4- | %113
w: ||* 6|* 7|6 6|
w: ||||* 4~|
w: |||||
[M:4/4][K:treble][I:staff +1] C,,4 F,,4- | F,,4 G,,4 ||[K:C][M:2/2] C,8- | C,8 | C,8 |[M:2/2] C,8 | %119
w: |* ~~~~~6~~~~5|||||
w: 5 *|* ~~~~~4~~~~3|||||
w: 3 *||||||
 C,8 | C,8 | C,8 | C,8 |[I:staff +1] C,4 C,[I:staff -1][K:bass]B,,/A,,/ G,,/F,,/E,,/F,,/ | %124
w: |||||
w: |||||
w: |||||
[I:staff +1] G,,2 G,,2 C,,4[I:staff -1][K:treble] | G,,8 | D,2 G,C, D,2 D,,2 | G,,8- | G,,4 C,4- | %129
w: |||||
w: |||||
w: |||||
 C,8 | F,,8- | F,6 F,G,/A,/ | _B,A,/G,/ F,/_E,/D,/C,/ _B,,4 | C,2 G,A,/_B,/ CB,/A,/ G,/F,/E,/D,/ | %134
w: |||||
w: |||||
w: |||||
 C,4 C,,4 | F,,8- | F,,8 | C,8 | C,8 | F,8- | F,8 | F,8 | F,4 _E,4- | E,8 | D,4 G,4 | F,4 _E,3 F, | %146
w: ||||7|||~~4+|* 6||7 3|~~4+ 6 3|
w: |||||||2||||3 * *|
w: ||||||||||||
 G,2 G,,2 C,4 |[I:staff -1] z[I:staff +1] CC_B, _A,_E,F,A, | G,2 G,,2 C,4 |[K:Eb][M:4/4] C,8- | %150
w: 6 5 3||||
w: 4 3 *||||
w: ||||
 C,8 | G,,4 C,4- | C,4 B,,4 |[M:4/4][I:staff -1][K:bass] B,,4 E,,4 | E,4 F,4 | G,8 | C,8 | %157
w: |~~~~~~~~4~~~~~~3 *||||~~~~~~~6~~~~~~5||
w: |||||~~~~~~~4~~~~~~3||
w: |||||||
 D,2 D,,2 G,,4 | E,,4 B,,4 | =B,,4 C,4 | A,,4 G,,4 ||[K:C] x8 | G,,8 | C,8- | C,8 | C,4 A,,4 | %166
w: 6 * *||7 *|~~~~~~7~~~~~6 *|||||* 6|
w: 4 5 *|||||||||
w: * 3 *|||||||||
 G,,4 F,,4 |[M:3/4] z2 z2 F,,2 | C,4 _B,,2 x2 | A,,2 G,,2 F,,2 x2 |[M:3/4] C,4 C,2 | F,,4 F,2- | %172
w: 6 *||* 4|6 * *|~~~~~~6~~~~~5 *||
w: 3 *||* 2||~~~~~~4~~~~~3 *||
w: ||||||
 F,2 E,D, E,C, | F,,2 G,,2 G,,2 | C,,2 C,2 B,,2 | A,,2 G,,2 F,,2 | E,,4 F,,2 | G,,6 | C,,6 | %179
w: 4+ 6 * * *|6 4 7|* 8 6|* 6 *|6 *|~~~~~~4~~~~~7||
w: 2~~ * * * *|5 * 3|9 3 *|||~~~~~~~~~~~~~3||
w: ||4 * *|||||
[M:3/2] C,8 F,4 | (E,4 D,4) C,4 | B,,8 C,4 | G,,12 | G,8 G,4 | C,12 | C,8 C,4 | F,,12 | %187
w: |6 6 *|6 *|~~~~~~6~~~~~5|* 7|~~~~~~9~~~~~8|* 7|~~~~~~~9~~~~~8|
w: ||5 *|~~~~~~4~~~~~3||~~~~~~4~~~~~3||~~~~~~~4~~~~~3|
w: ||||||||
[M:3/2] F,2 E,2 F,4 E,4 | D,2 C,2 D,4 C,4 | F,8 ^F,4 | G,4 G,,2 A,,2 B,,2 G,,2 | C,4 D,4 E,4 | %192
w: * * * 6|7 * 6 *|~~~~~7~~~~6 5|9 8 * 6 *|3 * 7|
w: ||~~~~~5~~~~4 3|4 3 * * *|* * 5|
w: |||||
 F,12 | D,4 E,4 F,4 | G,12 | E,4 F,4 G,4 | A,8 _B,4 | G,4 A,4 A,,4 | D,12 | D,4 E,4 F,4 | G,8 A,4 | %201
w: |3 * 7||3 * 7|~~~~~6~~~~~5 *|6 6 7||3 * 7|~~~~~~6~~~~~5 3|
w: |* * 5||* * 5|~~~~~4~~~~~3 *|* 4 3||* * 5|~~~~~~4~~~~~3 *|
w: |||||||||
 E,4 D,4 C,4 | G,,4 G,2 F,2 E,2 D,2 | C,4 E,4 F,4 | E,4 D,4 C,4 | C4 E,4 F,4 | E,4 D,4 C,4 | %207
w: 6 6 *|6 5 * * *|* 6 *|6 * *|* 6 *|6 * *|
w: |4 3 * * *|||||
w: ||||||
 G,,4 B,,4 C,4 | B,,4 A,,4 G,,4 | G,4 B,,4 C,4 | B,,4 A,,4 G,,4 | C,8 C,4 | C,12 | C,8 C,4 | C,12 | %215
w: * 6 *|6 * *|* 6 *|6 * *|* 6|5|* 6|5|
w: ||||* 4|3|* 4|3|
w: ||||||||
 F,8 E,4 | D,8 C,4 | B,,8 C,4 | G,,12 | G,8 B,,4 | C,4 D,4 E,4 | F,4 G,4 G,,4 | C,4 D,4 E,4 | %223
w: * 6|~~~~~~5~~~~~6 *|6 *|~~~~~~6~~~~~5|||||
w: ||5 *|~~~~~~4~~~~~3|||||
w: ||||||||
 F,4 G,4 G,,4 | C,8 z4 | F,12 | E,12 | F,12 | C,12 |] %229
w: ||||||
w: ||||||
w: ||||||
V:6
[K:Eb] x8 | x8 | x8 | x8 | x8 | x8 |[M:4/4] x8 | x8 | x8 | x8 | x8 | x8 | x8 | x8 | x8 | x8 | x8 | %17
 x8 | x8 | x8 | x8 | x8 | x8 | x8 | x8 ||[M:3/4][K:bass] x6 | x6 | x6 | x6 | x6 | x6 | x6 | x6 | %33
 x6 | x6 | x6 | x6 | x6 | x6 | x6 | x6 | x6 | x6 |[M:3/4][K:treble] z6 | z6 | z6 | z4 e2 | c4 B2 | %48
 A4 G2 | A2 G2 F2 | G4 G2 | F2 E2 D2 | E6 ||[M:4/4] x8 | x8 | x8 | x8 | x8 |[M:4/4] x8 | x8 | x8 | %61
 x8 | x8 | x8 |[M:3/4][K:bass] x6 | x6 | x6 | x6 | x6 | x6 | x6 | x6 | x6 | x6 | x6 | x6 | x6 | %77
 x6 | x6 | x6 | x6 | x6 | x6 | x6 | x6 | x6 | x6 | x6 | x6 | x6 | x6 | x6 | x6 | x6 | x6 | x6 | %96
 x6 | x6 | x6 | x6 | x6 | x6 | x6 |[M:3/4][K:treble] x6 | x6 | x6 | x6 | x6 | x6 || %109
[M:4/4][K:bass] x8 | x8 | x8 | x8 |[M:4/4][K:treble] x8 | x8 ||[K:C][M:2/2] x8 | x8 | x8 | %118
[M:2/2] x8 | x8 | x8 | x8 | x8 | x5[K:bass] x3 | x5[K:treble] x3 | x8 | x8 | x8 | x8 | x8 | x8 | %131
 x8 | x8 | x8 | x8 | x8 | x8 | x8 | x8 | x8 | x8 | x8 | x8 | x8 | x8 | x8 | x8 | x8 | x8 | %149
[K:Eb][M:4/4] x8 | x8 | x8 | x8 |[M:4/4][K:bass] x8 | x8 | x8 | x8 | x8 | x8 | x8 | x8 ||[K:C] x8 | %162
 x8 | x8 | x8 | x8 | x8 |[M:3/4] x6 | x8 | x8 |[M:3/4] x6 | x6 | x6 | x6 | x6 | x6 | x6 | x6 | x6 | %179
[M:3/2] x12 | x12 | x12 | x12 | x12 | x12 | x12 | x12 |[M:3/2] x12 | x12 | x12 | x12 | x12 | x12 | %193
 x12 | x12 | x12 | x12 | x12 | x12 | x12 | x12 | x12 | x12 | x12 | x12 | x12 | x12 | x12 | x12 | %209
 x12 | x12 | x12 | x12 | x12 | x12 | x12 | x12 | x12 | x12 | x12 | x12 | x12 | x12 | x12 | x12 | %225
 x12 | x12 | x12 | x12 |] %229

